icons/evolvere-blue-folders-flat-vivid-dark-fallback/actions/64/checkbox.svg

<?xml version="1.0" encoding="UTF-8" standalone="no"?>
<!-- Created with Inkscape (http://www.inkscape.org/) -->

<svg
   xmlns:dc="http://purl.org/dc/elements/1.1/"
   xmlns:cc="http://creativecommons.org/ns#"
   xmlns:rdf="http://www.w3.org/1999/02/22-rdf-syntax-ns#"
   xmlns:svg="http://www.w3.org/2000/svg"
   xmlns="http://www.w3.org/2000/svg"
   xmlns:sodipodi="http://sodipodi.sourceforge.net/DTD/sodipodi-0.dtd"
   xmlns:inkscape="http://www.inkscape.org/namespaces/inkscape"
   id="svg13094"
   height="64"
   width="64"
   version="1.1"
   inkscape:version="0.91+devel r"
   sodipodi:docname="checkbox.svg"
   inkscape:export-filename="folder.png"
   inkscape:export-xdpi="90"
   inkscape:export-ydpi="90">
  <sodipodi:namedview
     pagecolor="#ffffff"
     bordercolor="#666666"
     borderopacity="1"
     objecttolerance="10"
     gridtolerance="10"
     guidetolerance="10"
     inkscape:pageopacity="0"
     inkscape:pageshadow="2"
     inkscape:window-width="1920"
     inkscape:window-height="1023"
     id="namedview46"
     showgrid="true"
     inkscape:snap-bbox="true"
     inkscape:bbox-paths="true"
     inkscape:bbox-nodes="true"
     inkscape:snap-bbox-edge-midpoints="true"
     inkscape:snap-bbox-midpoints="true"
     inkscape:snap-nodes="true"
     inkscape:object-paths="true"
     inkscape:snap-intersection-paths="true"
     inkscape:object-nodes="true"
     inkscape:snap-smooth-nodes="true"
     inkscape:snap-midpoints="true"
     inkscape:snap-object-midpoints="true"
     inkscape:snap-center="true"
     fit-margin-top="0"
     fit-margin-left="0"
     fit-margin-right="0"
     fit-margin-bottom="0"
     inkscape:zoom="10.429825"
     inkscape:cx="19.430103"
     inkscape:cy="31.716406"
     inkscape:window-x="-10"
     inkscape:window-y="35"
     inkscape:window-maximized="1"
     inkscape:current-layer="svg13094"
     showguides="true"
     inkscape:guide-bbox="true"
     inkscape:snap-page="true"
     inkscape:snap-global="true">
    <inkscape:grid
       type="xygrid"
       id="grid3023"
       empspacing="5"
       visible="true"
       enabled="true"
       snapvisiblegridlinesonly="true"
       originx="-80px"
       originy="-75px" />
  </sodipodi:namedview>
  <defs
     id="defs11" />
  <metadata
     id="metadata13099">
    <rdf:RDF>
      <cc:Work
         rdf:about="">
        <dc:format>image/svg+xml</dc:format>
        <dc:type
           rdf:resource="http://purl.org/dc/dcmitype/StillImage" />
        <dc:title></dc:title>
      </cc:Work>
    </rdf:RDF>
  </metadata>
  <path
     sodipodi:nodetypes="ccccccccc"
     inkscape:connector-curvature="0"
     style="color:#000000;display:inline;overflow:visible;visibility:visible;opacity:1;fill:#3b577a;fill-opacity:1;fill-rule:nonzero;stroke:none;stroke-width:1;stroke-linecap:butt;stroke-linejoin:miter;stroke-miterlimit:4;stroke-dasharray:none;stroke-dashoffset:0;stroke-opacity:1;marker:none;enable-background:accumulate"
     id="path3812"
     d="M 0,1 2,0 62,0 64,1 64,62 62,64 2,64 0,62 Z" />
  <path
     d="M 0,1 2,0 62,0 64,1 64,4 0,4 Z"
     id="path3029"
     style="color:#000000;display:inline;overflow:visible;visibility:visible;opacity:1;fill:#668cbb;fill-opacity:1;fill-rule:nonzero;stroke:none;stroke-width:2.28571415;stroke-linecap:butt;stroke-linejoin:miter;stroke-miterlimit:4;stroke-dasharray:none;stroke-dashoffset:0;stroke-opacity:1;marker:none;enable-background:accumulate"
     inkscape:connector-curvature="0"
     sodipodi:nodetypes="ccccccc" />
  <path
     d="M 64,6 62,4 64,3 Z"
     id="path3028"
     style="opacity:1;fill:#162f4d;fill-opacity:0.35241502;stroke:none;stroke-width:0.62299293;stroke-linecap:butt;stroke-linejoin:miter;stroke-miterlimit:4;stroke-dasharray:none;stroke-dashoffset:0;stroke-opacity:1;marker:none"
     inkscape:connector-curvature="0" />
  <path
     d="M 0,6 2,4 0,3 Z"
     id="path3028-6"
     style="opacity:1;fill:#87bde7;fill-opacity:0.54740607;stroke-width:1;stroke-linecap:butt;stroke-linejoin:miter;stroke-miterlimit:4;stroke-dasharray:none;stroke-dashoffset:0;stroke-opacity:1"
     inkscape:connector-curvature="0" />
  <path
     style="color:#000000;display:inline;overflow:visible;visibility:visible;fill:#47a93f;fill-opacity:1;fill-rule:nonzero;stroke:none;stroke-width:1;marker:none;enable-background:accumulate"
     d="m 6,10 52,0 0,47 -52,0 z"
     id="rect3776"
     inkscape:connector-curvature="0"
     sodipodi:nodetypes="ccccc" />
  <path
     inkscape:connector-curvature="0"
     id="rect3776-4-5"
     d="m 6,10 0,47 18.6875,0 18,-47 L 6,10 Z"
     style="color:#000000;display:inline;overflow:visible;visibility:visible;fill:#6cffc5;fill-opacity:0.177102;fill-rule:nonzero;stroke:none;stroke-width:1;marker:none;enable-background:accumulate" />
  <path
     inkscape:transform-center-y="-15"
     inkscape:transform-center-x="12.859756"
     id="rect2987"
     d="m 17,19 0,30 30,0 0,-21.40625 4.296875,-4.296875 -3.59375,-3.59375 -15.703126,15.703125 -6.328124,-6.328125 -3.59375,3.59375 9.921874,9.921875 L 42,32.59375 42,44 l -19.999999,0 0,-11.40625 -2.421875,-2.421875 2.421875,-2.421875 0,-3.75 16.40625,0 L 43.40625,19 17,19 z"
     style="color:#000000;fill:#def8f0;fill-opacity:1;fill-rule:nonzero;stroke:none;stroke-width:1;marker:none;visibility:visible;display:inline;overflow:visible;enable-background:accumulate"
     inkscape:connector-curvature="0" />
</svg>

<svg xmlns="http://www.w3.org/2000/svg" viewBox="0 0 64 64"><g color="#000"><path d="m0 1l2-1h60l2 1v61l-2 2h-60l-2-2" fill="#3b577a"/><path d="m0 1l2-1h60l2 1v3h-64" fill="#668cbb"/></g><path d="m64 6l-2-2 2-1" fill="#162f4d" fill-opacity=".352"/><path d="m0 6l2-2-2-1" fill="#87bde7" fill-opacity=".547"/><g color="#000"><path d="m6 10h52v47h-52z" fill="#47a93f"/><path d="m6 10v47h18.688l18-47h-36.688" fill="#6cffc5" fill-opacity=".177"/><path d="m17 19v30h30v-21.406l4.297-4.297-3.594-3.594-15.703 15.703-6.328-6.328-3.594 3.594 9.922 9.922 10-10v11.406h-20v-11.406l-2.422-2.422 2.422-2.422v-3.75h16.406l5-5h-26.406" fill="#def8f0"/></g></svg>
